static/assets/images/protocols/kinza-finance-mono.svg

<svg width="447" height="318" viewBox="0 0 447 318" fill="none" xmlns="http://www.w3.org/2000/svg">
<path fill-rule="evenodd" clip-rule="evenodd" d="M94.0108 156.849V229.547C69.1591 239.775 29.0885 251.495 0 258.961C12.1917 280.491 27.4123 300.079 45.0829 317.148C107.736 298.75 173.36 269.937 223.444 236.862C273.414 269.861 338.377 298.63 400.872 317.035C418.584 299.904 433.83 280.24 446.027 258.626C418.136 251.451 379.691 240.4 356.218 230.91V158.126C375.992 165.461 396.339 171.689 417.177 176.734L433.031 111.557C362.322 94.4401 298.194 61.7906 244.854 17.7176L223.411 0L201.969 17.7176C148.628 61.7906 84.5005 94.4401 13.7913 111.557L29.6463 176.734C51.6819 171.4 73.1705 164.74 94.0108 156.849ZM203.701 168.926C190.251 178.662 176.078 187.865 161.243 196.48V125.95C182.975 114.082 203.745 100.778 223.411 86.1721C244.102 101.539 266.016 115.466 288.986 127.794V198.404C272.935 189.239 257.642 179.391 243.187 168.926L223.444 154.634L203.701 168.926Z" fill="black"/>
</svg>

<svg xmlns="http://www.w3.org/2000/svg" fill="none" viewBox="0 0 447 318"><path fill="#000" fill-rule="evenodd" d="M94.01 156.849v72.698C69.16 239.775 29.089 251.495 0 258.961a257 257 0 0 0 45.083 58.187c62.653-18.398 128.277-47.211 178.361-80.286 49.97 32.999 114.933 61.768 177.428 80.173a257 257 0 0 0 45.155-58.409c-27.891-7.175-66.336-18.226-89.809-27.716v-72.784a542 542 0 0 0 60.959 18.608l15.854-65.177c-70.709-17.117-134.837-49.766-188.177-93.84L223.411 0l-21.442 17.718C148.628 61.79 84.501 94.44 13.791 111.557l15.855 65.177a542 542 0 0 0 64.365-19.885m109.691 12.077c-13.45 9.736-27.623 18.939-42.458 27.554v-70.53a532 532 0 0 0 62.168-39.778 532 532 0 0 0 65.575 41.622v70.61c-16.051-9.165-31.344-19.013-45.799-29.478l-19.743-14.292z" clip-rule="evenodd"/></svg>
